X:1
P: Lord Lovat's Welcome / Morair Sim
C: from Simon Fraser Colln.
C: arr. T. Traub 2-12-2004
R: Strathspey
M: 4/4
K: F
L: 1/8
|: c|"F"A<FF>A "Bb"G>F F<D|"F"C>FF>A "C"c>A "F"f2|"F"A<FF>A "Bb"G>F G<A|"Dm"d>c A<c "Bb"d<e f :|
d|"F"c>d f<a g<af>d|"F"c>df>g "Bb"a/g/f/e/ f2|"F"c>d f<a g<af>e|"Dm"d>c A<c "Bb"d<e f2|
"F"c>d f<a g<af>d|"F"c>df>g "C"a/g/f/e/ "Dm"f2|"F"f<aa>f "C"g>ef>e|"Dm"d>c A<c "Bb"d<e f2 |]
